X: 17018
T: Heart Of Man
R: barndance
M: 4/4
K: Dmajor
(3FGA|:BAFD A,FA2|(3GAB (3AFD B,2 ^A,2|A,A^GA (3cBA (3GFE|(3DEF (3DCB, A,2 (3FGA|
BAFD A,FA2|(3GAB (3AFD B,2 ^A,2|A,A^GA (3cBA (3GFE|1 D2 A,2 D2 (3FGA:|2 D2 A,2 D2 (3DEF||
K:Gmaj
|:G4G2B2|d4 d2B2|(3cdc (3ABc d2 (3def|g2ge dBGB|(3ABA (3GFE D2 (3DEF|
G4G2B2|d4 d2B2|(3cdc (3ABc e2 ef|gfed edcB|1 ADEF G2 (3DEF:|2 ADEF G2||

